public/svg/facebook.svg

<svg width="52" height="52" viewBox="0 0 52 52" fill="none" xmlns="http://www.w3.org/2000/svg">
<g opacity="0.6">
<path d="M26.4206 5.19922C14.7486 5.19922 5.28516 14.5124 5.28516 25.9992C5.28516 36.427 13.0912 45.0381 23.2609 46.5427V31.5112H18.0316V26.0443H23.2609V22.406C23.2609 16.3827 26.2427 13.7394 31.3294 13.7394C33.7652 13.7394 35.0545 13.9179 35.6639 13.9976V18.7695H32.1941C30.0348 18.7695 29.281 20.7854 29.281 23.056V26.0443H35.6093L34.7515 31.5112H29.281V46.586C39.5968 45.2098 47.5561 36.5292 47.5561 25.9992C47.5561 14.5124 38.0927 5.19922 26.4206 5.19922Z" fill="white"/>
</g>
</svg>

<svg width="52" height="52" fill="none" xmlns="http://www.w3.org/2000/svg"><path d="M26.42 5.2C14.75 5.2 5.286 14.511 5.286 26c0 10.427 7.806 19.038 17.976 20.543V31.51h-5.23v-5.467h5.23v-3.638c0-6.023 2.982-8.667 8.068-8.667 2.436 0 3.725.179 4.335.259v4.772h-3.47c-2.16 0-2.913 2.015-2.913 4.286v2.988h6.328l-.858 5.467h-5.47v15.075c10.316-1.376 18.275-10.057 18.275-20.587 0-11.487-9.463-20.8-21.135-20.8Z" fill="#fff"/></svg>
